!!!OTL: STERBEN IST EIN HARTE BUSS
!!!ARE: Europa, Mitteleuropa, Deutschland, Mittel - Franken, Wuelflingen
!!!SCT: E2160
!!!YEM: Copyright 1995, estate of Helmut Schaffrath.
**kern
*ICvox
*Ivox
*M4/4
*k[b-]
*F:
=1
{4.f
8g
4a
4a
=2
4g
4g
4f
8r}
{16f
16g
=3
4a
4a
4cc
4cc
=4
8cc
8b-
4b-
4a
8r}
{16f
16a
=5
4cc
8cc
8ff
4.dd
8cc
=6
8.b-
16a
8.b-
16dd
4.cc}
{8b-
=7
4a
4a
8cc
8b-
8b-
8a
=8
4g
4cc
4.a}
{16f
16a
=9
4cc
8cc
8ff
4.dd
8cc
=10
8.b-
16a
8.b-
16dd
4.cc}
{8b-
=11
4a
4a
8cc
8b-
8b-
8a
=12
4g
4cc
2a}
==
!!!AGN: geistlich, Moral - Lied, Tod
!!!ONB: ESAC (Essen Associative Code) Database: ERK3
!!!AMT: simple quadruple
!!!AIN: vox
!!!EED: Helmut Schaffrath
!!!EEV: 1.0
*-
